src/components/Icon/assets/moon-filled.svg

<svg width="24" height="24" viewBox="0 0 24 24" fill="none" xmlns="http://www.w3.org/2000/svg">
<path fill-rule="evenodd" clip-rule="evenodd" d="M15.7705 15.6783C11.9775 15.0843 8.91253 12.0183 8.31853 8.22431C8.04953 6.50331 8.27653 4.86131 8.87053 3.40731C9.03853 2.99531 8.63353 2.58031 8.22253 2.74831C4.26753 4.36331 1.57453 8.42831 2.05553 13.0643C2.53453 17.6933 6.30453 21.4633 10.9335 21.9423C15.5685 22.4233 19.6345 19.7303 21.2495 15.7753C21.4175 15.3643 21.0025 14.9593 20.5905 15.1273C19.1365 15.7213 17.4935 15.9483 15.7705 15.6783" fill="#65676A"/>
</svg>

<svg xmlns="http://www.w3.org/2000/svg" width="24" height="24" viewBox="0 0 24 24">
    <path fill="#65676A" fill-rule="evenodd" d="M15.77 15.678c-3.792-.594-6.857-3.66-7.451-7.454-.27-1.72-.042-3.363.552-4.817.168-.412-.237-.827-.648-.659-3.955 1.615-6.648 5.68-6.167 10.316.479 4.63 4.249 8.4 8.878 8.878 4.635.481 8.7-2.212 10.316-6.167.168-.41-.247-.816-.66-.648-1.453.594-3.096.821-4.82.551"/>
</svg>
